!!!COM: Fux, Johann Joseph
!!!OMD: Gradus ad Parnassum Exercise
!!!YEC: CC0 1.0 Universal (Public Domain). Mark Gotham and FourScoreAndMore.org waive all rights to this document.
**kern	**kern	**kern
*part3	*part2	*part1
*staff3	*staff2	*staff1
*I"3	*I"2	*I"1
*I'Pno	*I'Pno	*I'Pno
!!LO:LB:g=z
*clefF4	*clefGv2	*clefG2
*k[]	*k[]	*k[]
!!LO:TX:omd:t=
*M4/4	*M4/4	*M4/4
=473	=473	=473
!	!	!LO:TX:a:t=Fig. 158; Species&colon; 5; Modal final&colon; e; Cantus firmus&colon; 1
1E	2r	1e
.	2G#X/	.
=474	=474	=474
1F	2.A/	1c
.	4G/	.
=475	=475	=475
1D	4F/	1d
.	8D/L	.
.	8E/J	.
.	4F/	.
.	4G/	.
=476	=476	=476
1F	4A/	1c
.	8F/L	.
.	8G/J	.
.	4A/	.
.	4B\	.
=477	=477	=477
1F	2.c\	1A
.	4B\	.
=478	=478	=478
1F	4A/	1a
.	4B\	.
.	4c\	.
.	4d\	.
=479	=479	=479
1C	2e\	1g
.	4E/	.
.	4F/	.
=480	=480	=480
1C	2G/	1e
.	[2c\	.
=481	=481	=481
1D	2c\]	1f
.	4B\	.
.	4A/	.
=482	=482	=482
1E	1G#X	1e
==	==	==
*-	*-	*-
!!!software: music21 v.9.7.1
!!!software: music21 v.9.7.1
!!!software: MuseScore 3.4.2
!!!RDF**kern: > = above
!!!RDF**kern: < = below
